icons/solid/cube.svg

<svg width="24" height="24" viewBox="0 0 24 24" fill="none" xmlns="http://www.w3.org/2000/svg">
<path fill-rule="evenodd" clip-rule="evenodd" d="M10.6584 2.5528C11.5029 2.13051 12.4971 2.13051 13.3416 2.5528L20.4472 6.10559C20.786 6.27498 21 6.62124 21 7.00002V7.38198L12 11.882L3 7.38199V7.00002C3 6.62124 3.214 6.27498 3.55279 6.10559L10.6584 2.5528ZM3 9.61806V15.7639C3 16.9003 3.64201 17.9391 4.65836 18.4472L11 21.618V13.6181L3 9.61806ZM13 21.6181L19.3416 18.4472C20.358 17.9391 21 16.9003 21 15.7639V9.61805L13 13.6181V21.6181Z" fill="currentColor"/>
</svg>

<svg width="24" height="24" fill="none" xmlns="http://www.w3.org/2000/svg"><path fill-rule="evenodd" clip-rule="evenodd" d="M10.658 2.553a3 3 0 012.684 0l7.105 3.553A1 1 0 0121 7v.382l-9 4.5-9-4.5V7a1 1 0 01.553-.894l7.105-3.553zM3 9.618v6.146a3 3 0 001.658 2.683L11 21.618v-8l-8-4zm10 12l6.342-3.17A3 3 0 0021 15.763V9.618l-8 4v8z" fill="currentColor"/></svg>
